assets/images/services/value-3.svg

<?xml version="1.0" encoding="UTF-8" standalone="no"?>
<svg width="37px" height="45px" viewBox="0 0 37 45" version="1.1" xmlns="http://www.w3.org/2000/svg" xmlns:xlink="http://www.w3.org/1999/xlink">
    <!-- Generator: sketchtool 46 (44423) - http://www.bohemiancoding.com/sketch -->
    <title>4130FBE1-8A95-448A-B610-7BED1244C79F</title>
    <desc>Created with sketchtool.</desc>
    <defs></defs>
    <g id="02-Quienes-somos" stroke="none" stroke-width="1" fill="none" fill-rule="evenodd">
        <g id="2.3-Valores" transform="translate(-682.000000, -701.000000)" fill="#00758D">
            <g id="Honestidad" transform="translate(682.000000, 701.000000)">
                <g id="Page-1">
                    <path d="M4.38043306,44.1610169 L36.3120446,44.1610169 L36.3120446,0.686440678 L4.38043306,0.686440678 C2.34115207,0.686440678 0.688077686,2.33588136 0.688077686,4.37033898 L0.688077686,40.4771186 C0.688077686,42.5115763 2.34115207,44.1610169 4.38043306,44.1610169" id="Fill-1" fill-opacity="0.4"></path>
                    <path d="M16.053719,44.9237288 C15.673781,44.9237288 15.3657025,44.6163559 15.3657025,44.2372881 L15.3657025,39.6329492 L3.8460124,27.7142034 C3.53778099,27.3952373 3.38641736,26.9592712 3.4307562,26.5185763 C3.47524793,26.0775763 3.71054959,25.680661 4.0762686,25.4291186 L4.46507438,25.1618644 C6.03680992,24.0812542 8.18388017,24.2478305 9.56969835,25.5578644 L12.8822686,28.6887966 C12.9163636,28.7208305 12.9691116,28.7223559 13.0055,28.6918475 L14.3397934,27.550678 C14.3601281,27.5334407 14.3719008,27.5079661 14.3719008,27.4809661 L14.3719008,9.83898305 C14.3719008,8.28289831 15.6407562,7.01694915 17.2004132,7.01694915 C18.7600702,7.01694915 20.0289256,8.28289831 20.0289256,9.83898305 L20.0289256,20.8220339 C20.0289256,21.2011017 19.7208471,21.5084746 19.3409091,21.5084746 C18.9609711,21.5084746 18.6528926,21.2011017 18.6528926,20.8220339 L18.6528926,9.83898305 C18.6528926,9.0399661 18.0012645,8.38983051 17.2004132,8.38983051 C16.399562,8.38983051 15.7479339,9.0399661 15.7479339,9.83898305 L15.7479339,27.4809661 C15.7479339,27.9091525 15.5610992,28.3143051 15.235438,28.593 L13.9009917,29.734322 C13.3281033,30.223678 12.4833719,30.2029322 11.9358636,29.6853559 L8.62329339,26.5544237 C7.70639669,25.6878305 6.28617769,25.5773898 5.2457438,26.2925085 L4.85693802,26.5597627 C4.81489256,26.5885932 4.80281405,26.6279492 4.80006198,26.6557119 C4.79715702,26.6837797 4.80113223,26.7245085 4.83660331,26.7611186 L16.548938,38.8793898 C16.6726281,39.0073729 16.7417355,39.1782203 16.7417355,39.3559322 L16.7417355,44.2372881 C16.7417355,44.6163559 16.433657,44.9237288 16.053719,44.9237288" id="Fill-3"></path>
                    <path d="M23.4690083,21.3559322 C23.0890702,21.3559322 22.7809917,21.0485593 22.7809917,20.6694915 L22.7809917,7.62711864 C22.7809917,6.87005085 22.1637645,6.25423729 21.4049587,6.25423729 C20.6461529,6.25423729 20.0289256,6.87005085 20.0289256,7.62711864 L20.0289256,9.83898305 C20.0289256,10.2180508 19.7208471,10.5254237 19.3409091,10.5254237 C18.9609711,10.5254237 18.6528926,10.2180508 18.6528926,9.83898305 L18.6528926,7.62711864 C18.6528926,6.11313559 19.8875,4.88135593 21.4049587,4.88135593 C22.9224174,4.88135593 24.1570248,6.11313559 24.1570248,7.62711864 L24.1570248,20.6694915 C24.1570248,21.0485593 23.8489463,21.3559322 23.4690083,21.3559322" id="Fill-5"></path>
                    <path d="M27.5971074,21.4322034 C27.2171694,21.4322034 26.9090909,21.1248305 26.9090909,20.7457627 L26.9090909,9.07627119 C26.9090909,8.31920339 26.2918636,7.70338983 25.5330579,7.70338983 C24.7742521,7.70338983 24.1570248,8.31920339 24.1570248,9.07627119 L24.1570248,11.2881356 C24.1570248,11.6672034 23.8489463,11.9745763 23.4690083,11.9745763 C23.0890702,11.9745763 22.7809917,11.6672034 22.7809917,11.2881356 L22.7809917,9.07627119 C22.7809917,7.56228814 24.0155992,6.33050847 25.5330579,6.33050847 C27.0505165,6.33050847 28.285124,7.56228814 28.285124,9.07627119 L28.285124,20.7457627 C28.285124,21.1248305 27.9770455,21.4322034 27.5971074,21.4322034" id="Fill-7"></path>
                    <path d="M29.8904959,45 C29.5105579,45 29.2024793,44.6926271 29.2024793,44.3135593 L29.2024793,39.7372881 C29.2024793,39.6727627 29.2116529,39.6085424 29.2295413,39.5466102 L31.0371901,33.3094576 L31.0371901,12.4322034 C31.0371901,11.6751356 30.4199628,11.059322 29.661157,11.059322 C28.9023512,11.059322 28.285124,11.6751356 28.285124,12.4322034 L28.285124,14.6440678 C28.285124,15.0231356 27.9770455,15.3305085 27.5971074,15.3305085 C27.2171694,15.3305085 26.9090909,15.0231356 26.9090909,14.6440678 L26.9090909,12.4322034 C26.9090909,10.9182203 28.1436983,9.68644068 29.661157,9.68644068 C31.1786157,9.68644068 32.4132231,10.9182203 32.4132231,12.4322034 L32.4132231,33.4067797 C32.4132231,33.4713051 32.4040496,33.5355254 32.3861612,33.5974576 L30.5785124,39.8346102 L30.5785124,44.3135593 C30.5785124,44.6926271 30.2704339,45 29.8904959,45" id="Fill-9"></path>
                    <path d="M16.1301653,45 L5.73347107,45 C2.57195868,45 0,42.4339322 0,39.279661 C0,36.1253898 2.57195868,33.559322 5.73347107,33.559322 L10.9316653,33.559322 C11.3116033,33.559322 11.6196818,33.8666949 11.6196818,34.2457627 C11.6196818,34.6248305 11.3116033,34.9322034 10.9316653,34.9322034 L5.73347107,34.9322034 C3.33076446,34.9322034 1.37603306,36.8824576 1.37603306,39.279661 C1.37603306,41.6768644 3.33076446,43.6271186 5.73347107,43.6271186 L16.1301653,43.6271186 C16.5101033,43.6271186 16.8181818,43.9344915 16.8181818,44.3135593 C16.8181818,44.6926271 16.5101033,45 16.1301653,45" id="Fill-11"></path>
                    <path d="M36.3119835,45 L29.8904959,45 C29.5105579,45 29.2024793,44.6926271 29.2024793,44.3135593 C29.2024793,43.9344915 29.5105579,43.6271186 29.8904959,43.6271186 L35.6239669,43.6271186 L35.6239669,34.9322034 L31.5724669,34.9322034 C31.1925289,34.9322034 30.8844504,34.6248305 30.8844504,34.2457627 C30.8844504,33.8666949 31.1925289,33.559322 31.5724669,33.559322 L36.3119835,33.559322 C36.6919215,33.559322 37,33.8666949 37,34.2457627 L37,44.3135593 C37,44.6926271 36.6919215,45 36.3119835,45" id="Fill-13"></path>
                    <path d="M0.688016529,39.9661017 C0.308078512,39.9661017 0,39.6587288 0,39.279661 L0,4.98569492 C0,2.23657627 2.24171074,0 4.9971405,0 L36.3119835,0 C36.6919215,0 37,0.307372881 37,0.686440678 L37,34.2457627 C37,34.6248305 36.6919215,34.9322034 36.3119835,34.9322034 C35.9320455,34.9322034 35.6239669,34.6248305 35.6239669,34.2457627 L35.6239669,1.37288136 L4.9971405,1.37288136 C3.00036364,1.37288136 1.37603306,2.99349153 1.37603306,4.98569492 L1.37603306,39.279661 C1.37603306,39.6587288 1.06795455,39.9661017 0.688016529,39.9661017" id="Fill-15"></path>
                    <path d="M5.12190083,20.7457627 C4.74196281,20.7457627 4.4338843,20.4383898 4.4338843,20.059322 L4.4338843,6.48305085 C4.4338843,6.10398305 4.74196281,5.79661017 5.12190083,5.79661017 C5.50183884,5.79661017 5.80991736,6.10398305 5.80991736,6.48305085 L5.80991736,20.059322 C5.80991736,20.4383898 5.50183884,20.7457627 5.12190083,20.7457627" id="Fill-17"></path>
                    <path d="M14.3581711,38.440678 L4.66325372,38.440678 C4.28316281,38.440678 3.97523719,38.1333051 3.97523719,37.7542373 C3.97523719,37.3751695 4.28316281,37.0677966 4.66325372,37.0677966 L14.3581711,37.0677966 C14.7381091,37.0677966 15.0461876,37.3751695 15.0461876,37.7542373 C15.0461876,38.1333051 14.7381091,38.440678 14.3581711,38.440678" id="Fill-19"></path>
                    <path d="M36.3119835,38.440678 L30.6200992,38.440678 C30.2401612,38.440678 29.9320826,38.1333051 29.9320826,37.7542373 C29.9320826,37.3751695 30.2401612,37.0677966 30.6200992,37.0677966 L36.3119835,37.0677966 C36.6919215,37.0677966 37,37.3751695 37,37.7542373 C37,38.1333051 36.6919215,38.440678 36.3119835,38.440678" id="Fill-21"></path>
                    <path d="M16.0148996,41.3389831 L4.66323843,41.3389831 C4.28330041,41.3389831 3.9752219,41.0316102 3.9752219,40.6525424 C3.9752219,40.2734746 4.28330041,39.9661017 4.66323843,39.9661017 L16.0148996,39.9661017 C16.3948376,39.9661017 16.7029161,40.2734746 16.7029161,40.6525424 C16.7029161,41.0316102 16.3948376,41.3389831 16.0148996,41.3389831" id="Fill-23"></path>
                    <path d="M36.3119835,41.3389831 L29.910219,41.3389831 C29.530281,41.3389831 29.2222025,41.0316102 29.2222025,40.6525424 C29.2222025,40.2734746 29.530281,39.9661017 29.910219,39.9661017 L36.3119835,39.9661017 C36.6919215,39.9661017 37,40.2734746 37,40.6525424 C37,41.0316102 36.6919215,41.3389831 36.3119835,41.3389831" id="Fill-25"></path>
                </g>
            </g>
        </g>
    </g>
</svg>

<svg width="37" height="45" viewBox="0 0 37 45" xmlns="http://www.w3.org/2000/svg"><title>4130FBE1-8A95-448A-B610-7BED1244C79F</title><g fill="#00758D" fill-rule="evenodd"><path d="M4.38 44.161h31.932V.686H4.38A3.688 3.688 0 0 0 .688 4.37v36.107a3.688 3.688 0 0 0 3.692 3.684" fill-opacity=".4"/><path d="M16.054 44.924a.687.687 0 0 1-.688-.687v-4.604L3.846 27.714a1.502 1.502 0 0 1 .23-2.285l.39-.267a4.094 4.094 0 0 1 5.104.396l3.312 3.13a.093.093 0 0 0 .123.004l1.335-1.141a.091.091 0 0 0 .032-.07V9.839a2.828 2.828 0 0 1 5.657 0v10.983a.687.687 0 0 1-1.376 0V9.839a1.453 1.453 0 0 0-2.905 0v17.642c0 .428-.187.833-.513 1.112l-1.334 1.141a1.468 1.468 0 0 1-1.965-.049l-3.313-3.13a2.709 2.709 0 0 0-3.377-.262l-.39.267a.129.129 0 0 0-.056.096.128.128 0 0 0 .037.105L16.549 38.88a.686.686 0 0 1 .193.477v4.881c0 .38-.308.687-.688.687"/><path d="M23.469 21.356a.687.687 0 0 1-.688-.687V7.627a1.376 1.376 0 0 0-2.752 0V9.84a.687.687 0 0 1-1.376 0V7.627a2.752 2.752 0 0 1 5.504 0V20.67c0 .38-.308.687-.688.687"/><path d="M27.597 21.432a.687.687 0 0 1-.688-.686V9.076a1.376 1.376 0 0 0-2.752 0v2.212a.687.687 0 0 1-1.376 0V9.076a2.752 2.752 0 0 1 5.504 0v11.67a.687.687 0 0 1-.688.686"/><path d="M29.89 45a.687.687 0 0 1-.688-.686v-4.577c0-.064.01-.128.028-.19l1.807-6.238V12.432a1.376 1.376 0 0 0-2.752 0v2.212a.687.687 0 0 1-1.376 0v-2.212a2.752 2.752 0 0 1 5.504 0v20.975a.676.676 0 0 1-.027.19l-1.807 6.238v4.479a.688.688 0 0 1-.689.686m-13.76 0H5.733C2.572 45 0 42.434 0 39.28c0-3.155 2.572-5.72 5.733-5.72h5.199a.687.687 0 1 1 0 1.372H5.733a4.357 4.357 0 0 0-4.357 4.348 4.357 4.357 0 0 0 4.357 4.347H16.13a.687.687 0 1 1 0 1.373"/><path d="M36.312 45H29.89a.687.687 0 1 1 0-1.373h5.734v-8.695h-4.052a.687.687 0 1 1 0-1.373h4.74c.38 0 .688.308.688.687v10.068a.687.687 0 0 1-.688.686"/><path d="M.688 39.966A.687.687 0 0 1 0 39.28V4.986C0 2.236 2.242 0 4.997 0h31.315c.38 0 .688.307.688.686v33.56a.687.687 0 0 1-1.376 0V1.373H4.997a3.62 3.62 0 0 0-3.621 3.613V39.28a.687.687 0 0 1-.688.686"/><path d="M5.122 20.746a.687.687 0 0 1-.688-.687V6.483a.687.687 0 0 1 1.376 0V20.06c0 .38-.308.687-.688.687m9.236 17.693H4.663a.687.687 0 1 1 0-1.372h9.695a.687.687 0 1 1 0 1.373m21.954-.001H30.62a.687.687 0 1 1 0-1.372h5.692a.687.687 0 1 1 0 1.373m-20.297 2.898H4.663a.687.687 0 1 1 0-1.373h11.352a.687.687 0 1 1 0 1.373m20.297 0H29.91a.687.687 0 1 1 0-1.373h6.402a.687.687 0 1 1 0 1.373"/></g></svg>
